X: 66
T: Kalyana
C: Emer Mayock
D: Lunsas "S"
D: Emer Mayock "Playground"
M: 6/8
L: 1/8
R: jig
K: Dmaj
|:F2d cAF|AzB AFE|F2d cAd|cAd edc|
F2d cAF|A2A- AFE|F2d dcd|e2d cBA:|
|:dee ede|f2d dcd|eze ede|g2a fed|
eze ede|f2d fga|g2e edB|1dze dBA:|2 dzd- dAG||
